X:1
T:Udite meraviglie
T:Udite meraviglie
T:Domenico Obizzi
T:Madrigal
T:Source : Madrigali et arie a voce sola---Libro I ---Venetia---A.Vincenti---1627. Editor : André Vierendeels (20/02/16).
T:Notes : Original clefs : C1, F4 Editorial accidentals above the staff
T:©
T:©
T:©
T:©
T:©
T:©
C:Domenico Obizzi
Z:©
%%score 1 2
L:1/8
Q:1/4=120
M:4/4
K:F
V:1 treble nm="Soprano" snm="S"
V:2 bass nm="BC" snm="BC"
V:1
 z2 G2 B4 | B4 z2 B2 | dcBA BB B2- | B2 cd G2 B2 | B2 A2 B4 | D2 DD D2 E2 | F3 F G2 G/A/B/G/ | %7
w: U- di-|te, u-|di- te me- ra- vi- glie Al-|* me d'A- mor ar-|den _ ti,|fan- si del fo- co|mio del fo- co _ _ _|
 A3 B G/A/B/c/ d/e/f/B/ | c4 B4 | z2 F2 BdcB | c2 cF GA B/A/ c/B/ | A4 G2 D2 | GBAG A2 AA | %13
w: mio le fiam _ _ _ me'al _ _ _|gen- ti,|e pur non ces- sa'il|co- re dal u- si- ta- * to'ar- *|do- re, e|pur non ces- sa'il co- r'e pur|
 BdcB c2 cd | _edfe d4 | c4 c2 BA | B2 c/B/A/G/ A2 AF | GABc A4 | G4 z2 B/A/B/c/ | d2 c4 Bc | %20
w: non ces- sa'il co- * re, dal|u- si- ta- to'ar- do-|re, l'o- ro del|bion- do _ _ _ cri- ne, si|co- pre di pru- i-|ne, e _ _ _|pur tan- to mi|
 AA A4 GA | F/E/D/E/ F/E/F/G/ A/G/A/B/ c/B/c/F/ | G4 G4 | c2 BA B2 A/B/c/B/ | A4 G2 G/F/G/A/ | %25
w: leg- ga, tan- to mi|leg- * * * ga'in- * * * ar- * * * gen- * * *|ya- to,|quan- to leg- go- mi'au- * * *|ra- to, e _ _ _|
 B2 B4 AG | FE FG AB cF | G4 G4 | G2 FE F2 D2 | d2 cB c2 A/B/c/F/ | G4 F4 | z2 CC F2 GG | %32
w: pur tan- to mi|leg- * ga'in- * ar- * gen- *|ta- to,|quan- to leg- go- mi,|quan- to leg- go- mi'au- * * *|ra- to,|e quel sol ch'a- do|
 AG G>F G4 | G2 G/A/B/G/ c2 BA | B2 c/d/_e/c/ d2 D/E/F/D/ | G2 FE F2 G/A/B/G/ | A3 A BA GF | %37
w: rai nel' o- ri- en-|te, a- * * * mo, i- do-|la- tr'an- * * * cor, a- * * *|mo, i- do- la- tr'an- * * *|cor ne l'oc- * ci- *|
 E4 D2 A/B/c/A/ | d2 cB c2 A/B/c/A/ | B2 d2 c2 B2 | A4 G2 G/A/B/G/ | c2 BA B2 c/d/_e/c/ | %42
w: den- te, a- * * *|mo, i- do- la- tr'an- * * *|cor ne l'oc- ci-|den- te, a- * * *|mo, i- do- la- tr'an- * * *|
"^Passeggio" d4 D4 | E4 G4 | G6 ^F2 | G8 |] %46
w: cor ne|l'oc- ci-|den- *|te.|
V:2
 G,,8 | G,,4 G,4 | ^F,4 G,3 F, |"^(-natural)" _E,2 D,2 E,4 | F,4 B,,4 | B,,4 G,,4 | D,4 D,2 C,2 | %7
 F,2 D,2 _E,2 D,2 | F,4 B,,4 | B,,4 B,,2 G,,2 | F,,2 D,2 _E,2 C,2 | D,4 G,,4 | G,2 E,2 F,2 D,2 | %13
 G,4 F,2 _E,D, | C,2 F,2 G,4 | C,4 C,4 | D,2 E,2 F,2 D,2 | _E,2 C,2 D,4 | G,,4 G,4 | B,2 A,2 G,4 | %20
 F,4 E,4 | D,2 E,2 F,2 D,2 | C,4 C,4 | C,2 D,2 G,,2 C,2 | D,4 G,,4 | G,,3 A,, B,,2 C,2 | %26
 D,2 E,2 F,2 D,2 | C,4 C,4 | C,4 D,3 C, | B,,4 F,,2 A,,2 | B,,2 C,2 F,,4 | F,,4 F,2 E,2 | %32
 F,2 D,2 C,4 | C,4 C,2 D,2 | G,,2 A,,2 B,,4 | B,,2 C,2 D,2 E,2 | F,2 D,2 G,2 G,,2 | A,,4 D,4 | %38
 D,4 E,2 ^F,2 | G,2 B,,2 C,4 | D,4 G,,2 G,2 | E,2 ^F,2 G,2 A,2 | B,4 B,,4 | C,4 _E,4 | D,8 | %45
 G,,8 |] %46

